X: 6
T: High Caul Cap
R: polka
M: 2/4
L: 1/8
K: Amix
A>B c>e d/c/B/A/ cc/d/ | cB BA/B/ cB BE | A>B c>e d/c/B/A/ c/d/c/B/ | AF FE/F/ AF FE :|
f/^g/a/g/ e>c d/c/B/A/ cc/d/ | cB BA/B/ cB Be |  f/^g/a/g/ e>c d/c/B/A/ c/d/c/B/ | AF FE/F/ AF Fe:||


Tune 1524	Setting 1524

